teeny/outline/globe.svg

<svg width="15" height="15" viewBox="0 0 15 15" fill="none" xmlns="http://www.w3.org/2000/svg">
<path d="M7.5 15V12M4 14.5H11M11.4687 1C12.7144 2.09942 13.5 3.70796 13.5 5.5C13.5 8.81371 10.8137 11.5 7.5 11.5C5.96329 11.5 4.56151 10.9223 3.5 9.97221M7.5 2.5C5.84315 2.5 4.5 3.84315 4.5 5.5C4.5 7.15685 5.84315 8.5 7.5 8.5C9.15685 8.5 10.5 7.15685 10.5 5.5C10.5 3.84315 9.15685 2.5 7.5 2.5Z" stroke="black"/>
</svg>

<svg viewBox="0 0 15 15" xmlns="http://www.w3.org/2000/svg"><path fill="none" stroke="#000" d="M7.5 15v-3M4 14.5h7M11.46 1c1.24 1.09 2.03 2.7 2.03 4.5 0 3.31-2.69 6-6 6 -1.54 0-2.94-.58-4-1.53m4-7.48c-1.66 0-3 1.34-3 3 0 1.65 1.34 3 3 3 1.65 0 3-1.35 3-3 0-1.66-1.35-3-3-3Z"/></svg>
